assets/Old man/Light/Flat/old_man_flat_light.svg

<svg width="32" height="32" viewBox="0 0 32 32" fill="none" xmlns="http://www.w3.org/2000/svg">
<path d="M10 18C10 19.6569 8.65685 21 7 21C5.34315 21 4 19.6569 4 18C4 16.3431 5.34315 15 7 15C8.65685 15 10 16.3431 10 18Z" fill="#F4C6AD"/>
<path d="M28 18C28 19.6569 26.6569 21 25 21C23.3431 21 22 19.6569 22 18C22 16.3431 23.3431 15 25 15C26.6569 15 28 16.3431 28 18Z" fill="#F4C6AD"/>
<path d="M15.1463 4.5C9.95769 4.5 5.96645 8.9 6.2658 14L7.06404 24.4C7.36339 27.7 9.85791 30 13.0509 30H19.0378C22.131 30 24.7253 27.7 25.0246 24.4L25.7231 14C26.1222 8.8 22.0312 4.5 16.8426 4.5H15.1463V4.5Z" fill="#FFD7C2"/>
<path d="M15.2872 17.5266L14.2963 20.6961C14.0941 21.348 14.5794 22 15.2669 22H16.7331C17.4206 22 17.9059 21.338 17.7037 20.6961L16.7128 17.5266C16.5005 16.8245 15.5096 16.8245 15.2872 17.5266Z" fill="#E5AF93"/>
<path d="M16 23.8954C15.0538 23.8954 14.1644 23.6727 13.417 23.2831C13.1615 23.1532 12.8871 23.4408 13.048 23.6727C13.6724 24.6191 14.7605 25.25 16 25.25C17.2395 25.25 18.3276 24.6191 18.952 23.6727C19.1129 23.4315 18.8385 23.1532 18.583 23.2831C17.8356 23.6727 16.9556 23.8954 16 23.8954Z" fill="#990838"/>
<path d="M9.01481 17.3672C9.30113 16.2402 10.3279 15.3999 11.5423 15.3999C12.8061 15.3999 13.8625 16.2995 14.0994 17.4957C14.1488 17.7626 13.9415 17.9999 13.6749 17.9999H9.51834C9.18266 17.9999 8.93583 17.6934 9.01481 17.3672Z" fill="white"/>
<path d="M22.9852 17.3672C22.6989 16.2402 21.6721 15.3999 20.4577 15.3999C19.1841 15.3999 18.1375 16.2995 17.9006 17.4957C17.8512 17.7626 18.0585 17.9999 18.3251 17.9999H22.4817C22.8173 17.9999 23.0642 17.6934 22.9852 17.3672Z" fill="white"/>
<path d="M10.2588 17.557C10.2588 16.6312 11.0091 15.8926 11.9273 15.8926C12.8455 15.8926 13.586 16.6312 13.586 17.557C13.586 17.7145 13.5663 17.8623 13.5268 18.0002H10.318C10.2785 17.8524 10.2588 17.7145 10.2588 17.557Z" fill="#7D4533"/>
<path d="M21.7412 17.557C21.7412 16.6312 20.9908 15.8926 20.0726 15.8926C19.1545 15.8926 18.4041 16.6312 18.414 17.557C18.414 17.7145 18.4337 17.8623 18.4732 18.0002H21.682C21.7214 17.8524 21.7412 17.7145 21.7412 17.557Z" fill="#7D4533"/>
<path d="M11.9274 16.6113C12.4506 16.6113 12.8752 17.0348 12.8752 17.5568C12.8752 17.7144 12.8357 17.8621 12.7666 18H11.0882C11.019 17.8621 10.9796 17.7144 10.9796 17.5568C10.9796 17.0348 11.4041 16.6113 11.9274 16.6113Z" fill="black"/>
<path d="M20.0627 16.6113C19.5395 16.6113 19.1149 17.0348 19.1149 17.5568C19.1149 17.7144 19.1544 17.8621 19.2235 18H20.902C20.9711 17.8621 21.0106 17.7144 21.0106 17.5568C21.0106 17.0348 20.586 16.6113 20.0627 16.6113Z" fill="black"/>
<path d="M11.6509 16.9201C11.6509 17.0858 11.5183 17.2201 11.3547 17.2201C11.1911 17.2201 11.0585 17.0858 11.0585 16.9201C11.0585 16.7544 11.1911 16.6201 11.3547 16.6201C11.5183 16.6201 11.6509 16.7544 11.6509 16.9201Z" fill="white"/>
<path d="M19.8456 16.9201C19.8456 17.0858 19.7129 17.2201 19.5494 17.2201C19.3858 17.2201 19.2532 17.0858 19.2532 16.9201C19.2532 16.7544 19.3858 16.6201 19.5494 16.6201C19.7129 16.6201 19.8456 16.7544 19.8456 16.9201Z" fill="white"/>
<path d="M8.96281 12.9869L8.96425 12.9857L8.96581 12.9844L8.96929 12.9815L8.97765 12.9747L9.00001 12.9569C9.0174 12.9433 9.03978 12.9262 9.06704 12.9062C9.12151 12.8663 9.19575 12.8147 9.28882 12.7564C9.47451 12.6401 9.73809 12.4952 10.0715 12.3634C10.741 12.0987 11.697 11.8855 12.8552 12.0684C13.3981 12.1541 13.7687 12.6637 13.683 13.2067C13.5973 13.7496 13.0877 14.1202 12.5447 14.0345C11.8029 13.9174 11.2089 14.0542 10.8034 14.2145C10.5993 14.2952 10.4441 14.3815 10.3455 14.4433C10.2963 14.4741 10.262 14.4983 10.2434 14.5119C10.2357 14.5176 10.2307 14.5213 10.2287 14.523C9.80652 14.8671 9.18493 14.808 8.83538 14.3886C8.48349 13.9663 8.54055 13.3388 8.96281 12.9869Z" fill="#9B9B9B"/>
<path d="M22.9364 12.9863L22.9341 12.9844L22.9307 12.9815L22.9223 12.9747L22.8999 12.9569C22.8825 12.9433 22.8602 12.9262 22.8329 12.9062C22.7784 12.8663 22.7042 12.8147 22.6111 12.7564C22.4254 12.6401 22.1618 12.4952 21.8284 12.3634C21.1589 12.0987 20.2029 11.8855 19.0448 12.0684C18.5018 12.1541 18.1312 12.6637 18.2169 13.2067C18.3026 13.7496 18.8123 14.1202 19.3552 14.0345C20.097 13.9174 20.691 14.0542 21.0966 14.2145C21.3006 14.2952 21.4558 14.3815 21.5545 14.4433C21.6036 14.4741 21.6379 14.4983 21.6565 14.5119C21.6643 14.5176 21.6692 14.5213 21.6713 14.523C22.0934 14.8671 22.715 14.808 23.0646 14.3886C23.4164 13.9663 23.3587 13.3382 22.9364 12.9863Z" fill="#9B9B9B"/>
<path d="M9 10C9 10.6242 8.71407 11.1816 8.26604 11.5483L8.26953 11.55L6.86619 12.6999C6.63439 12.8899 6.5 13.1738 6.5 13.4734V17C5.93655 17 5.4689 16.5646 5.42875 16.0025L5.02056 10.2879C5.00701 10.1939 5 10.0977 5 10C5 8.89543 5.89543 8 7 8C8.10457 8 9 8.89543 9 10Z" fill="#9B9B9B"/>
<path d="M23 10C23 10.6242 23.2859 11.1816 23.734 11.5483L23.7305 11.55L25.1338 12.6999C25.3656 12.8899 25.5 13.1738 25.5 13.4734V17C26.0634 17 26.5311 16.5646 26.5712 16.0025L26.9794 10.2879C26.993 10.1939 27 10.0977 27 10C27 8.89543 26.1046 8 25 8C23.8954 8 23 8.89543 23 10Z" fill="#9B9B9B"/>
<path d="M18.7187 18.6275C18.9244 18.4433 19.2405 18.4607 19.4247 18.6664C19.6202 18.8847 19.8018 19.036 20.0376 19.1402C20.2778 19.2463 20.6119 19.32 21.1322 19.32C21.4084 19.32 21.6322 19.5439 21.6322 19.82C21.6322 20.0961 21.4084 20.32 21.1322 20.32C20.5203 20.32 20.0383 20.2337 19.6335 20.0548C19.2243 19.8741 18.9321 19.6153 18.6798 19.3336C18.4955 19.1278 18.513 18.8117 18.7187 18.6275Z" fill="#F1B99B"/>
<path d="M12.7183 18.6548C12.9086 18.4553 13.2247 18.4476 13.4246 18.6377C13.6247 18.828 13.6323 19.1448 13.442 19.3449L13.441 19.3459L13.4394 19.3476L13.4354 19.3517L13.4238 19.3635C13.4144 19.3728 13.4019 19.385 13.3863 19.3997C13.3551 19.429 13.3113 19.4683 13.2555 19.5142C13.1441 19.6059 12.983 19.7252 12.7762 19.8438C12.363 20.0807 11.7577 20.32 11 20.32C10.7239 20.32 10.5 20.0961 10.5 19.82C10.5 19.5439 10.7239 19.32 11 19.32C11.5423 19.32 11.977 19.1493 12.2788 18.9763C12.4295 18.8898 12.5447 18.8041 12.6201 18.742C12.6577 18.7111 12.6851 18.6864 12.7016 18.6708C12.7099 18.6631 12.7155 18.6575 12.7183 18.6548Z" fill="#F1B99B"/>
<path d="M13 8.5C13 8.22386 13.2239 8 13.5 8H18.5C18.7761 8 19 8.22386 19 8.5C19 8.77614 18.7761 9 18.5 9H13.5C13.2239 9 13 8.77614 13 8.5Z" fill="#F1B99B"/>
<path d="M11 10.5C11 10.2239 11.2239 10 11.5 10H20.5C20.7761 10 21 10.2239 21 10.5C21 10.7761 20.7761 11 20.5 11H11.5C11.2239 11 11 10.7761 11 10.5Z" fill="#F1B99B"/>
</svg>

<svg xmlns="http://www.w3.org/2000/svg" width="32" height="32" fill="none"><path fill="#F4C6AD" d="M10 18a3 3 0 1 1-6 0 3 3 0 0 1 6 0ZM28 18a3 3 0 1 1-6 0 3 3 0 0 1 6 0Z"/><path fill="#FFD7C2" d="M15.146 4.5c-5.188 0-9.18 4.4-8.88 9.5l.798 10.4c.3 3.3 2.794 5.6 5.987 5.6h5.987c3.093 0 5.687-2.3 5.987-5.6l.698-10.4c.4-5.2-3.692-9.5-8.88-9.5h-1.697Z"/><path fill="#E5AF93" d="m15.287 17.527-.99 3.17a1.005 1.005 0 0 0 .97 1.303h1.466c.688 0 1.173-.662.97-1.304l-.99-3.17c-.213-.701-1.203-.701-1.426 0Z"/><path fill="#990838" d="M16 23.895a5.603 5.603 0 0 1-2.583-.612c-.255-.13-.53.158-.369.39A3.53 3.53 0 0 0 16 25.25a3.53 3.53 0 0 0 2.952-1.577c.16-.241-.114-.52-.369-.39a5.574 5.574 0 0 1-2.583.612Z"/><path fill="#fff" d="M9.015 17.367a2.607 2.607 0 0 1 5.085.128.428.428 0 0 1-.425.505H9.518a.512.512 0 0 1-.503-.633ZM22.985 17.367a2.617 2.617 0 0 0-2.527-1.967 2.6 2.6 0 0 0-2.557 2.096.428.428 0 0 0 .424.504h4.157a.512.512 0 0 0 .503-.633Z"/><path fill="#7D4533" d="M10.259 17.557a1.664 1.664 0 1 1 3.268.443h-3.209a1.656 1.656 0 0 1-.06-.443ZM21.741 17.557c0-.926-.75-1.664-1.668-1.664a1.65 1.65 0 0 0-1.659 1.664c0 .158.02.305.06.443h3.208c.04-.148.06-.285.06-.443Z"/><path fill="#000" d="M11.927 16.611a.947.947 0 0 1 .84 1.389h-1.679a.947.947 0 0 1 .84-1.389ZM20.063 16.611a.947.947 0 0 0-.84 1.389h1.679a.947.947 0 0 0-.84-1.389Z"/><path fill="#fff" d="M11.65 16.92c0 .166-.132.3-.295.3a.298.298 0 0 1-.296-.3c0-.166.132-.3.296-.3.163 0 .296.134.296.3ZM19.846 16.92c0 .166-.133.3-.297.3a.298.298 0 0 1-.296-.3c0-.166.133-.3.296-.3.164 0 .297.134.297.3Z"/><path fill="#9B9B9B" d="m8.963 12.987.001-.001.002-.002.003-.002.009-.007.022-.018c.017-.014.04-.03.067-.05.055-.04.129-.092.222-.15.186-.117.45-.262.783-.394a5.283 5.283 0 0 1 2.783-.295.995.995 0 1 1-.31 1.966 3.293 3.293 0 0 0-1.742.18 2.828 2.828 0 0 0-.56.298l-.014.011a.995.995 0 0 1-1.266-1.536ZM22.936 12.986l-.002-.002-.003-.002-.009-.007-.022-.018a3.705 3.705 0 0 0-.289-.2 4.818 4.818 0 0 0-.783-.394 5.282 5.282 0 0 0-2.783-.295.995.995 0 1 0 .31 1.966 3.294 3.294 0 0 1 1.742.18 2.836 2.836 0 0 1 .56.298l.014.011a.995.995 0 0 0 1.265-1.537ZM9 10c0 .624-.286 1.182-.734 1.548l.004.002-1.404 1.15a1 1 0 0 0-.366.773V17a1.074 1.074 0 0 1-1.071-.997l-.408-5.715A2 2 0 1 1 9 10ZM23 10c0 .624.286 1.182.734 1.548l-.004.002 1.404 1.15a1 1 0 0 1 .366.773V17c.563 0 1.031-.435 1.071-.997l.408-5.715A2 2 0 1 0 23 10Z"/><path fill="#F1B99B" d="M18.719 18.628a.5.5 0 0 1 .706.038c.195.219.377.37.613.474.24.106.574.18 1.094.18a.5.5 0 1 1 0 1c-.612 0-1.094-.086-1.498-.265-.41-.18-.702-.44-.954-.721a.5.5 0 0 1 .039-.706ZM12.718 18.655a.5.5 0 0 1 .724.69h-.001l-.002.003-.004.004-.011.011a2.121 2.121 0 0 1-.168.151A3.562 3.562 0 0 1 11 20.32a.5.5 0 0 1-.001-1 2.562 2.562 0 0 0 1.702-.65l.016-.015ZM13 8.5a.5.5 0 0 1 .5-.5h5a.5.5 0 0 1 0 1h-5a.5.5 0 0 1-.5-.5ZM11 10.5a.5.5 0 0 1 .5-.5h9a.5.5 0 0 1 0 1h-9a.5.5 0 0 1-.5-.5Z"/></svg>
